X:74
T:Lieut. Col. Baillie of Leys
R:Strathspey
S:MacDonald - Skye Collection
N:pg.26
M:C
L:1/8
K:D
F||D2 F>A d>AF>D|ED C<EC<A,|D2 F>A d>AF>D|f>de>c dc/B/ A/G/F/E/|
D2 F>A d>AF>D|ED C<EC<A,|D2 F>A d>AF>A|B>g f/e/d/c/ d3||e|
f>dg>e f>dA>F|G<eF<d e>Ac>A|f>dg>e f>de>c|B>g f/e/d/c/ d3e|f<dg>e f>dA>F|
G<eF<d e>Ac>A|D2 F>A d>AF>A|B>g f/e/d/c/ e/d/c/B/ A/G/F/E/||
